src/actions/24/edit-node.svg

<svg xmlns="http://www.w3.org/2000/svg" viewBox="0 0 24 24">
  <defs id="defs3051">
    <style type="text/css" id="current-color-scheme">
      .ColorScheme-Text {
        color:#2e3440;
      }
      </style>
  </defs>
 <path style="fill:currentColor;fill-opacity:1;stroke:none" 
     d="M 5.5 4 C 4.669 4 4 4.669 4 5.5 C 4 6.15424 4.418077 6.7021971 5 6.9082031 L 5 17 L 4 17 L 4 20 L 7 20 L 7 17 L 6 17 L 6 6.9082031 C 6.424456 6.7579421 6.7567461 6.422663 6.9082031 6 L 17 6 L 17 7 L 20 7 L 20 4 L 17 4 L 17 5 L 6.9082031 5 C 6.7021971 4.418077 6.15424 4 5.5 4 z M 5.5 5 C 5.777 5 6 5.223 6 5.5 C 6 5.777 5.777 6 5.5 6 C 5.223 6 5 5.777 5 5.5 C 5 5.223 5.223 5 5.5 5 z M 18 5 L 19 5 L 19 6 L 18 6 L 18 5 z M 7 7 L 7 14 L 9 11.5 L 12 11.5 L 7 7 z M 5 18 L 6 18 L 6 19 L 5 19 L 5 18 z "
     class="ColorScheme-Text"
     />
</svg>

<svg viewBox="0 0 24 24" xmlns="http://www.w3.org/2000/svg">
 <defs>
  <style type="text/css">.ColorScheme-Text {
        color:#2e3440;
      }</style>
 </defs>
 <path class="ColorScheme-Text" d="m5.5 4c-0.831 0-1.5 0.669-1.5 1.5 0 0.65424 0.41808 1.2022 1 1.4082v10.092h-1v3h3v-3h-1v-10.092c0.42446-0.15026 0.75675-0.48554 0.9082-0.9082h10.092v1h3v-3h-3v1h-10.092c-0.20601-0.58192-0.75396-1-1.4082-1zm0 1c0.277 0 0.5 0.223 0.5 0.5s-0.223 0.5-0.5 0.5-0.5-0.223-0.5-0.5 0.223-0.5 0.5-0.5zm12.5 0h1v1h-1v-1zm-11 2v7l2-2.5h3l-5-4.5zm-2 11h1v1h-1v-1z" fill="currentColor"/>
</svg>
